assets/sonr-icons/feedback.svg

<svg xmlns="http://www.w3.org/2000/svg" width="24" height="24" fill="none" viewBox="0 0 24 24"><path fill="#000" d="M22 1H15C14.997 1 14.993 1 14.99 1C13.798 1 12.805 1.855 12.592 2.985L12.59 3L11.67 8.05C11.645 8.18 11.631 8.33 11.631 8.484C11.631 9.082 11.846 9.629 12.203 10.054L12.2 10.05C12.654 10.587 13.327 10.927 14.08 10.93H17.001L16.751 11.59C16.618 11.931 16.541 12.327 16.541 12.74C16.541 14.523 17.972 15.971 19.748 16H19.751C19.753 16 19.756 16 19.759 16C20.163 16 20.511 15.761 20.669 15.417L20.671 15.411L22.911 10.351C22.96 10.249 22.992 10.13 23.001 10.005V2.002C23.001 1.45 22.553 1.002 22.001 1.002H21.999L22 1ZM21 9.73L19.17 13.86C18.988 13.76 18.838 13.625 18.723 13.464L18.72 13.46C18.579 13.263 18.494 13.016 18.494 12.75C18.494 12.588 18.526 12.434 18.582 12.292L18.579 12.3L18.959 11.3C19.03 11.121 19.071 10.913 19.071 10.696C19.071 10.33 18.954 9.991 18.755 9.715L18.759 9.72C18.447 9.282 17.942 9 17.37 9C17.362 9 17.355 9 17.348 9H14.059H14.057C13.918 9 13.793 8.939 13.709 8.84L13.708 8.839C13.648 8.757 13.612 8.655 13.612 8.545C13.612 8.518 13.614 8.492 13.618 8.466V8.469L14.538 3.469C14.537 3.46 14.537 3.45 14.537 3.438C14.537 3.195 14.734 2.998 14.977 2.998C14.985 2.998 14.992 2.998 14.999 2.999H20.998L20.997 9.729L21 9.73ZM9.93999 13.05H7.04999L7.29999 12.39C7.42799 12.054 7.50199 11.665 7.50199 11.26C7.50199 9.462 6.04699 8.004 4.24999 8C4.24799 8 4.24399 8 4.24099 8C3.83799 8 3.48999 8.239 3.33099 8.583L3.32899 8.589L1.08899 13.649C1.03399 13.766 1.00099 13.903 0.998993 14.048V22.049C0.998993 22.601 1.44699 23.049 1.99899 23.049H8.99899C9.00199 23.049 9.00599 23.049 9.00899 23.049C10.201 23.049 11.194 22.194 11.407 21.064L11.409 21.049L12.329 16.049C12.354 15.919 12.368 15.769 12.368 15.615C12.368 15.017 12.153 14.47 11.796 14.045L11.799 14.049C11.369 13.471 10.702 13.09 9.94499 13.049H9.93899L9.94099 13.05H9.93999ZM9.45999 20.63C9.42599 20.842 9.24399 21 9.02599 21C9.01699 21 9.00799 21 8.99899 20.999H2.99999V14.269L4.82999 10.139C5.01099 10.239 5.16199 10.374 5.27699 10.535L5.27999 10.539C5.42099 10.736 5.50599 10.983 5.50599 11.249C5.50599 11.411 5.47499 11.565 5.41799 11.707L5.42099 11.699L5.04099 12.699C4.96999 12.878 4.92799 13.086 4.92799 13.304C4.92799 13.67 5.04499 14.009 5.24399 14.285L5.23999 14.28C5.55099 14.729 6.06299 15.02 6.64299 15.02C6.64499 15.02 6.64799 15.02 6.64999 15.02H9.93999H9.94199C10.081 15.02 10.206 15.081 10.29 15.18L10.291 15.181C10.351 15.263 10.387 15.365 10.387 15.475C10.387 15.502 10.385 15.528 10.381 15.554L10.382 15.551L9.46099 20.632L9.45999 20.63Z"/></svg>

<svg xmlns="http://www.w3.org/2000/svg" width="24" height="24" fill="none"><path fill="currentColor" d="M22 1h-7.01a2.44 2.44 0 0 0-2.398 1.985L12.59 3l-.92 5.05a2.432 2.432 0 0 0 .533 2.004l-.003-.004a2.47 2.47 0 0 0 1.88.88h2.921l-.25.66A3.26 3.26 0 0 0 19.748 16h.011a1 1 0 0 0 .91-.583l.002-.006 2.24-5.06a1 1 0 0 0 .09-.346V2.002a1 1 0 0 0-1-1h-.002zm-1 8.73-1.83 4.13a1.3 1.3 0 0 1-.447-.396l-.003-.004a1.22 1.22 0 0 1-.138-1.168l-.003.008.38-1a1.672 1.672 0 0 0-.204-1.585l.004.005A1.7 1.7 0 0 0 17.37 9h-3.313a.45.45 0 0 1-.348-.16l-.001-.001a.5.5 0 0 1-.09-.373v.003l.92-5-.001-.031a.44.44 0 0 1 .462-.439h5.999l-.001 6.73zM9.94 13.05H7.05l.25-.66A3.26 3.26 0 0 0 4.25 8h-.009c-.403 0-.751.239-.91.583l-.002.006-2.24 5.06a1 1 0 0 0-.09.399v8.001a1 1 0 0 0 1 1h7.01a2.44 2.44 0 0 0 2.398-1.985l.002-.015.92-5a2.432 2.432 0 0 0-.533-2.004l.003.004a2.47 2.47 0 0 0-1.854-1h-.006zm-.48 7.58a.44.44 0 0 1-.434.37l-.027-.001H3v-6.73l1.83-4.13c.181.1.332.235.447.396l.003.004a1.22 1.22 0 0 1 .138 1.168l.003-.008-.38 1a1.672 1.672 0 0 0 .203 1.586l-.004-.005c.311.449.823.74 1.403.74h3.299c.139 0 .264.061.348.16l.001.001a.5.5 0 0 1 .09.373l.001-.003-.921 5.081z"/></svg>
